file/jardines.svg

<svg clip-rule="evenodd" fill-rule="evenodd" stroke-linejoin="round" stroke-miterlimit="1.41421" viewBox="0 0 560 400" xmlns="http://www.w3.org/2000/svg"><g transform="matrix(1.02432 0 0 1.02432 100 102.69)"><path d="m350.722 106.03c-2.926-1.54-6.28-2.848-10.063-2.93-7.185-.159-11.146 3.704-11.369 8.573-.174 3.702 2.061 7.119 9.329 9.161 4.886 1.366 5.297 3.249 5.049 4.421-.38 1.572-2.38 2.206-4.121 2.124-2.324-.105-4.727-.844-8.322-2.546l-2.359 4.657c3.236 2.041 7.62 3.553 11.838 3.482 5.391-.083 9.749-2.68 10.6-7.128.782-4.08-1.489-8.24-7.854-10.108-6.243-1.831-6.481-3.319-6.333-4.736.208-1.099 1.141-2.556 4.453-2.314 1.804.185 4.453.954 6.809 2.027zm-41.729 8.727c0-4.031 1.604-6.239 4.421-6.239 1.492 0 2.543.552 3.26 1.659.66 1.048.881 2.15.881 4.247v.334h-8.562zm13.04 9.663c-2.271 1.881-4.644 2.819-7.181 2.819-3.813 0-5.968-2.485-5.968-6.849l16.352-.222v-1.711c0-5.91-1.168-9.721-3.763-12.37-1.822-1.875-4.914-2.984-8.168-2.984-3.76 0-6.576 1.217-8.891 3.813-2.485 2.763-3.539 6.127-3.539 11.208 0 8.893 5.246 14.636 13.366 14.636 3.98 0 7.401-1.271 10.662-3.92zm-59.399-32.287c-2.241 0-4.093 1.802-4.093 4.045s1.802 4.042 3.991 4.042c2.243 0 4.051-1.8 4.051-4.042 0-2.243-1.754-4.045-3.949-4.045m-3.757 12.682v27.174h7.401v-29.144zm-14.227 6.263v13.689c-.688.783-2.152 1.699-3.54 1.699-3.862 0-5.13-1.99-5.13-8.063 0-6.298 1.438-9.058 4.746-9.058 1.325-.001 2.595.589 3.924 1.733m7.341-19.959-7.341 1.944v11.808c-1.391-.978-2.765-1.434-4.806-1.434-7.181 0-12.094 6.072-12.094 14.91 0 8.781 4.526 14.361 11.709 14.361 2.541 0 4.351-.764 5.794-1.795.253.467.577.845.862 1.076h5.875v-40.87zm21.526 13.698-.002 27.172h7.399v-18.438c0-2.826 2.741-3.935 4.273-3.92 1.938 0 3.354.764 3.354 3.965v18.393h7.287v-20.653c0-1.77-.162-2.985-.552-4.034-.887-2.43-3.651-4.087-6.789-4.087-1.663 0-3.593.443-5.082 1.214-1.217.665-1.384.816-2.487 1.589v-3.173zm-63.086 0-.002 27.172h7.398v-18.3c0-1.043.353-2.132 1.12-2.813 1.196-1.064 2.421-1.255 3.412-1.255.83 0 1.424.078 2.237.259l1.958-6.223c-1.157-.497-1.655-.605-2.762-.605-.826 0-2.069.357-2.676.636-1.268.579-2.116 1.149-3.29 2.147v-2.99zm-13.908 14.802v5.855c-1.12 1.126-2.705 2.15-4.086 2.15-1.879 0-3.256-1.489-3.256-3.697 0-3.373 1.765-4.308 6.9-4.308zm-12.961-12.826c1.08-.737 2.088-1.35 3.36-2 2.866-1.243 4.687-1.689 7.284-1.689 4.747 0 8.004 1.769 9.108 4.915.39 1.163.556 2.044.501 5.084v18.887h-5.872c-.338-.245-.845-.942-.967-1.33-1.592 1.501-4.236 2.313-6.552 2.313-5.609 0-9.142-3.14-9.142-8.772 0-6.624 4.581-9.719 13.585-9.719.551 0 1.049 0 1.655.057v-1.161c0-3.151-.606-4.196-3.312-4.196-2.012 0-4.454.861-6.921 2.218zm-15.455-11.662v30.23c0 4.141-.168 5.685-.773 7.068-.665 1.548-2.483 3.425-4.473 4.64l3.593 3.976c3.478-1.326 7.84-4.308 8.943-9.001.383-1.548.553-2.542.553-7.51v-31.473z" fill="#48535b"/><g fill-rule="nonzero"><path d="m43.512 121.272 20.424-5.053-12.419 19.477-8.006-14.423m-8.006-14.426 20.422-5.05-12.416 19.476zm28.431 9.372 20.428-5.052-12.421 19.474zm-8.009-14.422 20.426-5.053-12.417 19.475zm20.426-5.054 20.418-5.056-12.411 19.478zm-48.856-4.316 20.422-5.056-12.417 19.478zm20.422-5.056 20.425-5.053-12.417 19.474zm40.85-10.11 20.419-5.051-12.417 19.477-8.004-14.422-12.414 19.478-8.007-14.426 20.421-5.052-.002-.003h.001l-8.009-14.416-12.413 19.472-8.007-14.426 20.418-5.05-.001-.002 20.428-5.054zm-48.859-4.314 20.423-5.055-12.414 19.478z" fill="#004282"/><path d="m144.047 63.629c.051-.059.123-.087.207-.087.165 0 .283.183.28.348-.067 2.533-.327 4.386-.327 4.396-3.246 32.047-17.757 48.938-48.585 67.381-16.657 9.964-21.252 17.565-24.045 21.547-5.225 7.45-9.134 21.98-10.336 26.805l-6.504 5.981c2.597-41.911 15.685-51.729 34.306-71.067 16.883-17.532 23.606-31.195 24.241-48.126.272-7.186-1.501-15.261-1.822-16.533-.021-.087-.049-.215-.066-.308-.047-.197-.061-.375.114-.448.191-.079.385.018.688.313 12.72 12.62 16.351 25.387 16.351 25.387z" fill="#004282"/><path d="m.012 99.511c-.002-.012-.012-.061-.012-.078 0-.161.12-.262.287-.262.059 0 .098.021.168.056l10.125 6.08c2.142-16.328 10.221-26.448 18.973-33.472.128-.107.274-.237.417-.272.179-.047.34-.015.352.23.007.122-.086.307-.134.408-19.852 39.695 15.771 64.534 19.217 66.815l-1.292 2.034c-36.544-8.738-46.303-33.144-48.101-41.539" fill="#004282"/><path d="m43.272 65.085-3.844.948-23.193-25.27c4.16-3.973 8.721-7.76 13.653-11.313zm13.973-3.461-4.019.995-18.732-36.345c5.396-3.568 11.194-6.865 17.348-9.831zm14.025-3.469-4.021.996-9.837-45.257c3.351-1.458 6.794-2.817 10.332-4.075 3.336-1.18 6.698-2.261 10.077-3.228zm14.897-3.687-4.297 1.066 2.119-50.584c8.024-1.978 16.113-3.357 24.133-4.146zm15.736-3.898-4.803 1.188 17.593-51.473c9.11-.537 18.088-.315 26.759.648z" fill="#bb1530"/></g></g></svg>

<?xml version="1.0" encoding="UTF-8" standalone="no"?>
<!DOCTYPE svg PUBLIC "-//W3C//DTD SVG 1.1//EN" "http://www.w3.org/Graphics/SVG/1.1/DTD/svg11.dtd">
<svg width="100%" height="100%" viewBox="0 0 560 400" version="1.1" xmlns="http://www.w3.org/2000/svg" xmlns:xlink="http://www.w3.org/1999/xlink" xml:space="preserve" xmlns:serif="http://www.serif.com/" style="fill-rule:evenodd;clip-rule:evenodd;stroke-linejoin:round;stroke-miterlimit:1.41421;">
    <g transform="matrix(1.02432,0,0,1.02432,100,102.69)">
        <path d="M350.722,106.03C347.796,104.49 344.442,103.182 340.659,103.1C333.474,102.941 329.513,106.804 329.29,111.673C329.116,115.375 331.351,118.792 338.619,120.834C343.505,122.2 343.916,124.083 343.668,125.255C343.288,126.827 341.288,127.461 339.547,127.379C337.223,127.274 334.82,126.535 331.225,124.833L328.866,129.49C332.102,131.531 336.486,133.043 340.704,132.972C346.095,132.889 350.453,130.292 351.304,125.844C352.086,121.764 349.815,117.604 343.45,115.736C337.207,113.905 336.969,112.417 337.117,111C337.325,109.901 338.258,108.444 341.57,108.686C343.374,108.871 346.023,109.64 348.379,110.713L350.722,106.03ZM308.993,114.757C308.993,110.726 310.597,108.518 313.414,108.518C314.906,108.518 315.957,109.07 316.674,110.177C317.334,111.225 317.555,112.327 317.555,114.424L317.555,114.758L308.993,114.758L308.993,114.757ZM322.033,124.42C319.762,126.301 317.389,127.239 314.852,127.239C311.039,127.239 308.884,124.754 308.884,120.39L325.236,120.168L325.236,118.457C325.236,112.547 324.068,108.736 321.473,106.087C319.651,104.212 316.559,103.103 313.305,103.103C309.545,103.103 306.729,104.32 304.414,106.916C301.929,109.679 300.875,113.043 300.875,118.124C300.875,127.017 306.121,132.76 314.241,132.76C318.221,132.76 321.642,131.489 324.903,128.84L322.033,124.42ZM262.634,92.133C260.393,92.133 258.541,93.935 258.541,96.178C258.541,98.421 260.343,100.22 262.532,100.22C264.775,100.22 266.583,98.42 266.583,96.178C266.583,93.935 264.829,92.133 262.634,92.133M258.877,104.815L258.877,131.989L266.278,131.989L266.278,102.845L258.877,104.815ZM244.65,111.078L244.65,124.767C243.962,125.55 242.498,126.466 241.11,126.466C237.248,126.466 235.98,124.476 235.98,118.403C235.98,112.105 237.418,109.345 240.726,109.345C242.051,109.344 243.321,109.934 244.65,111.078M251.991,91.119L244.65,93.063L244.65,104.871C243.259,103.893 241.885,103.437 239.844,103.437C232.663,103.437 227.75,109.509 227.75,118.347C227.75,127.128 232.276,132.708 239.459,132.708C242,132.708 243.81,131.944 245.253,130.913C245.506,131.38 245.83,131.758 246.115,131.989L251.99,131.989L251.99,91.119L251.991,91.119ZM273.517,104.817L273.515,131.989L280.914,131.989L280.914,113.551C280.914,110.725 283.655,109.616 285.187,109.631C287.125,109.631 288.541,110.395 288.541,113.596L288.541,131.989L295.828,131.989L295.828,111.336C295.828,109.566 295.666,108.351 295.276,107.302C294.389,104.872 291.625,103.215 288.487,103.215C286.824,103.215 284.894,103.658 283.405,104.429C282.188,105.094 282.021,105.245 280.918,106.018L280.918,102.845L273.517,104.817ZM210.431,104.817L210.429,131.989L217.827,131.989L217.827,113.689C217.827,112.646 218.18,111.557 218.947,110.876C220.143,109.812 221.368,109.621 222.359,109.621C223.189,109.621 223.783,109.699 224.596,109.88L226.554,103.657C225.397,103.16 224.899,103.052 223.792,103.052C222.966,103.052 221.723,103.409 221.116,103.688C219.848,104.267 219,104.837 217.826,105.835L217.826,102.845L210.431,104.817ZM196.523,119.619L196.523,125.474C195.403,126.6 193.818,127.624 192.437,127.624C190.558,127.624 189.181,126.135 189.181,123.927C189.181,120.554 190.946,119.619 196.081,119.619L196.523,119.619ZM183.562,106.793C184.642,106.056 185.65,105.443 186.922,104.793C189.788,103.55 191.609,103.104 194.206,103.104C198.953,103.104 202.21,104.873 203.314,108.019C203.704,109.182 203.87,110.063 203.815,113.103L203.815,131.99L197.943,131.99C197.605,131.745 197.098,131.048 196.976,130.66C195.384,132.161 192.74,132.973 190.424,132.973C184.815,132.973 181.282,129.833 181.282,124.201C181.282,117.577 185.863,114.482 194.867,114.482C195.418,114.482 195.916,114.482 196.522,114.539L196.522,113.378C196.522,110.227 195.916,109.182 193.21,109.182C191.198,109.182 188.756,110.043 186.289,111.4L183.562,106.793ZM168.107,95.131L168.107,125.361C168.107,129.502 167.939,131.046 167.334,132.429C166.669,133.977 164.851,135.854 162.861,137.069L166.454,141.045C169.932,139.719 174.294,136.737 175.397,132.044C175.78,130.496 175.95,129.502 175.95,124.534L175.95,93.061L168.107,95.131Z" style="fill:rgb(72,83,91);"/>
        <path d="M43.512,121.272L63.936,116.219L51.517,135.696L43.511,121.273M35.505,106.847L55.927,101.797L43.511,121.273L35.505,106.847ZM63.936,116.219L84.364,111.167L71.943,130.641L63.936,116.219ZM55.927,101.797L76.353,96.744L63.936,116.219L55.927,101.797ZM76.353,96.743L96.771,91.687L84.36,111.165L76.353,96.743ZM27.497,92.427L47.919,87.371L35.502,106.849L27.497,92.427ZM47.919,87.371L68.344,82.318L55.927,101.792L47.919,87.371ZM88.769,77.261L109.188,72.21L96.771,91.687L88.767,77.265L76.353,96.743L68.346,82.317L88.767,77.265L88.765,77.262L88.766,77.262L80.757,62.846L68.344,82.318L60.337,67.892L80.755,62.842L80.754,62.84L101.182,57.786L88.769,77.261ZM39.91,72.947L60.333,67.892L47.919,87.37L39.91,72.947Z" style="fill:rgb(0,66,130);fill-rule:nonzero;"/>
        <path d="M144.047,63.629C144.098,63.57 144.17,63.542 144.254,63.542C144.419,63.542 144.537,63.725 144.534,63.89C144.467,66.423 144.207,68.276 144.207,68.286C140.961,100.333 126.45,117.224 95.622,135.667C78.965,145.631 74.37,153.232 71.577,157.214C66.352,164.664 62.443,179.194 61.241,184.019L54.737,190C57.334,148.089 70.422,138.271 89.043,118.933C105.926,101.401 112.649,87.738 113.284,70.807C113.556,63.621 111.783,55.546 111.462,54.274C111.441,54.187 111.413,54.059 111.396,53.966C111.349,53.769 111.335,53.591 111.51,53.518C111.701,53.439 111.895,53.536 112.198,53.831C124.918,66.451 128.549,79.218 128.549,79.218L144.047,63.629Z" style="fill:rgb(0,66,130);fill-rule:nonzero;"/>
        <path d="M0.012,99.511C0.01,99.499 0,99.45 0,99.433C0,99.272 0.12,99.171 0.287,99.171C0.346,99.171 0.385,99.192 0.455,99.227L10.58,105.307C12.722,88.979 20.801,78.859 29.553,71.835C29.681,71.728 29.827,71.598 29.97,71.563C30.149,71.516 30.31,71.548 30.322,71.793C30.329,71.915 30.236,72.1 30.188,72.201C10.336,111.896 45.959,136.735 49.405,139.016L48.113,141.05C11.569,132.312 1.81,107.906 0.012,99.511" style="fill:rgb(0,66,130);fill-rule:nonzero;"/>
        <path d="M43.272,65.085L39.428,66.033L16.235,40.763C20.395,36.79 24.956,33.003 29.888,29.45L43.272,65.085ZM57.245,61.624L53.226,62.619L34.494,26.274C39.89,22.706 45.688,19.409 51.842,16.443L57.245,61.624ZM71.27,58.155L67.249,59.151L57.412,13.894C60.763,12.436 64.206,11.077 67.744,9.819C71.08,8.639 74.442,7.558 77.821,6.591L71.27,58.155ZM86.167,54.468L81.87,55.534L83.989,4.95C92.013,2.972 100.102,1.593 108.122,0.804L86.167,54.468ZM101.903,50.57L97.1,51.758L114.693,0.285C123.803,-0.252 132.781,-0.03 141.452,0.933L101.903,50.57Z" style="fill:rgb(187,21,48);fill-rule:nonzero;"/>
    </g>
</svg>
